X:1
T:Title
%%score { ( 1 3 ) | 2 }
L:1/8
M:3/4
K:Ab
V:1 treble nm="Grand Piano"
V:3 treble 
V:2 bass 
V:1
 z2 z2[Q:1/4=100] [CE]2 | [CE]>[DF] [CE]2 [Ec]2 | c>B B2 G2 | G>A G2 B2 |[M:2/4] [DB]>[CA] [CA]2 | %5
[M:1/4] [CE]2 |[M:3/4] [CE]>[CA] [Ec]2 [_Ge]2 | [Fe]>[Fd] [DF]2 [FA]2 | G>A B2 d2 | %9
[M:5/8] c>B [CA]3 |[M:4/4][K:bass] A,<A, .F,2 F<[K:treble]F A<F | %11
[M:11/16][K:bass] F,<A,E,/ z/ z E/E- |[M:5/16] E/A<E | A,<G,F,/ | %14
[M:4/4] z z/[K:treble] F/ F>B F>[K:bass]F, E,>C, |[M:11/16] z/ z E<E[K:treble]F<[CE] | %16
[M:5/16][K:bass] A,<A,F,/ |[M:4/4] z z/[K:treble] F/ F>A F>[K:bass]F, A,>E, | %18
[M:11/16] z/ z E<EA<E |[M:5/16] A,<G,F,/ |[M:4/4] z z/[K:treble] F/ F>B F>[K:bass]F, E,>C, | %21
[M:11/16] z/ z E<E[K:treble]F<[CE] |] %22
V:2
 z2 z2 [A,,A,]2 | [A,,A,]>[A,,A,] [A,,A,]2 [A,,A,]2 | [E,A,E]>[E,G,E] [E,G,E]2 [E,B,E]2 | %3
 [E,B,E]>[E,CE] [E,B,E]2 [E,G,D]2 |[M:2/4] [A,,A,]>[A,,A,] [A,,A,]2 |[M:1/4] [A,,A,]2 | %6
[M:3/4] [A,,A,]>[A,,A,] [A,,A,]2 [C,A,]2 | [D,A,]>[D,A,] [D,A,]2 [D,D]2 | %8
 [E,DE]>[E,CE] [E,DE]2 [E,B,E]2 |[M:5/8] [E,A,E]>[E,G,D] [A,,A,]3 | %10
[M:4/4] z4[K:treble] [A,D]<[A,D] [A,F]<[A,D] |[M:11/16] z/ z/ z/ z/ z/ z/ z[K:bass] [A,C]/[A,C]- | %12
[M:5/16] [A,C]/[CE]<[A,C] | z5/2 |[M:4/4] z z/ [B,D]/ [B,D]>[F,D] [B,D]2 z2 | %15
[M:11/16] z/ z [A,C]<[A,C][A,D]<[A,,A,] |[M:5/16] z5/2 | %17
[M:4/4] z z/[K:treble] [A,D]/ [A,D]>[A,F] [A,D]2 z2 |[M:11/16] z/ z [A,C]<[A,C][CE]<[A,C] | %19
[M:5/16] z5/2 |[M:4/4] z z/[K:bass] [B,D]/ [B,D]>[F,D] [B,D]2 z2 | %21
[M:11/16] z/ z [A,C]<[A,C][A,D]<[A,,A,] |] %22
V:3
 x6 | x6 | x6 | x6 |[M:2/4] x4 |[M:1/4] x2 |[M:3/4] x6 | x6 | x6 |[M:5/8] x5 | %10
[M:4/4][K:bass] z2 z/ D,3/2- D,4[K:treble] |[M:11/16][K:bass] z/ z/ z/ z C,/-C,/-C,-<C,- | %12
[M:5/16] C,/-C,-<C, | x5/2 |[M:4/4] B,,6[K:treble][K:bass] z2 | %15
[M:11/16] G,,/-G,,/-G,,/-G,,/-G,,-<G,,[K:treble] z/ z |[M:5/16][K:bass] x5/2 | %17
[M:4/4] D,6[K:treble][K:bass] z2 |[M:11/16] C,/-C,/-C,/-C,/-C,/-C,/-C,/-C,-<C, |[M:5/16] x5/2 | %20
[M:4/4] B,,6[K:treble][K:bass] z2 |[M:11/16] G,,/-G,,/-G,,/-G,,/-G,,-<G,,[K:treble] z/ z |] %22

